!! 00000] TT[WS
!!!OTL: Tianhe shuige liangtou qi
!!!ARE: Asia, China,ÿShanxi Hequ
!! Ethnic Group: Han
!! WI, 9
!!!SCT: J0010
!!!YEM: Copyright 1995, estate of Helmut Schaffrath.
**kern
*ICvox
*Ivox
*M2/4
*k[f#c#]
*D:
{8.ee
16ee
4ee
=1
8b
16b
16dd
4a
=2
8ee
8aa
8a
16a
16f#
=3
2e}
=4
{8.ee
16ee
4ee
=5
8b
8dd
8ee
8ee
=6
8ee
8aa
8dd
8ee
=7
8b
4.a}
==
!!!AGN: Shange, Shanqu. Qingge
!!!ONB: ESAC (Essen Associative Code) Database: CHINA
!!!AMT: simple duple
!!!AIN: vox
!!!EED: Helmut Schaffrath
!!!EEV: 1.0
*-
